X:4243
T:Miss Hope's Reel. JMT071
O:england
M:4/4
L:1/8
Q:140
S:J.Moore,Tyneside,1841.(50a)
R:Strathspey
A:Northumberland
N:A little difficult to read the lower note
K:D
A,|D<CC>F E>DB,<D|G<GG>A B>AFd|A<FFD GBAG|EB,B,C E-D2:|
|:A|d<dAd FdAc|d>f (g/f/e/d/)B2-Bc|dfdA BdAF|GBAc (3dAG (3FED|
d<dAd FdAc|d>f (g/f/e/d/)B2-Bc|dfdA BdAF|EB,B,C E-D2:|]


